packages/icons/svg/Media_Print_48px.svg

<svg xmlns="http://www.w3.org/2000/svg" viewBox="0 0 48 48"><path d="M32 17a1 1 0 001 1h5a1 1 0 000-2h-5a1 1 0 00-1 1z"/><path d="M42 10h-4V6a2 2 0 00-2-2H12a2 2 0 00-2 2v4H6a2 2 0 00-2 2v24a2 2 0 002 2h4v4a2 2 0 002 2h24a2 2 0 002-2v-4h4a2 2 0 002-2V12a2 2 0 00-2-2zM13 7h22v3H13zm22 28v6H13V27h22zm6 0h-3v-8.09a1.5 1.5 0 00-.5-2.91h-27a1.5 1.5 0 00-.5 2.91V35H7V13h34z"/><path d="M17 32h14a1 1 0 000-2H17a1 1 0 000 2zM17 38h14a1 1 0 000-2H17a1 1 0 000 2z"/></svg>

<svg xmlns="http://www.w3.org/2000/svg" viewBox="0 0 48 48"><defs></defs><g id="Icon"><path  d="M32,17a1,1,0,0,0,1,1h5a1,1,0,0,0,0-2H33A1,1,0,0,0,32,17Z"/><path  d="M42,10H38V6a2,2,0,0,0-2-2H12a2,2,0,0,0-2,2v4H6a2,2,0,0,0-2,2V36a2,2,0,0,0,2,2h4v4a2,2,0,0,0,2,2H36a2,2,0,0,0,2-2V38h4a2,2,0,0,0,2-2V12A2,2,0,0,0,42,10ZM13,7H35v3H13ZM35,35v6H13V27H35Zm6,0H38V26.91A1.5,1.5,0,0,0,37.5,24h-27a1.5,1.5,0,0,0-.5,2.91V35H7V13H41Z"/><path  d="M17,32H31a1,1,0,0,0,0-2H17a1,1,0,0,0,0,2Z"/><path  d="M17,38H31a1,1,0,0,0,0-2H17a1,1,0,0,0,0,2Z"/></g></svg>
